X:1
T:Title
%%score { ( 1 4 ) | ( 2 3 ) }
L:1/8
M:2/2
K:F
V:1 treble nm="Grand Piano"
V:4 treble 
V:2 bass 
V:3 bass 
V:1
 z4[Q:1/4=124] [A,CF]4 | [CFA]4 [A,DF]4 | [CEG]4 [DFB]4 | [CFA]4 .[CEG]4 | z4 G4 | %5
 [CFA]2 [G=B]2 [Gc]2 [Ad]2 | [Gc]4 [DG=B]4 | [EGc]8- |[M:2/4] [EGc]4 | c4 |[M:4/4] f2 e2 d2 c2 | %11
 B3 A B2 c2 | [Bd]3 [Ac] D2- [DFA]2 | [EG]4 [CEG]4 | A2 z2 z4 | A4 z4 | [A,F]8- |[M:2/4] [A,F]4 |] %18
V:2
 z4 F,4 | E,4 D,4 | C,4 G,,4 | A,,2 B,,2 z2 B,2 | z4 .G,4 | z2 D2 [E,C]2 [F,F]2 | [G,E]4 [G,,G,]4 | %7
 [C,C]8- |[M:2/4] [C,C]4 | [CE]4 |[M:4/4] [A,CF]4 F2- [A,CF]2 | G3 ^F G2 A2 | %12
 [G,B,]3 [A,C] B,2 =B,2 | C4 C,4 | F,2 G,2[K:treble] [A,CF]2 [B,F]2 | [CF]2 z2[K:bass] C,4 | F,8- | %17
[M:2/4] F,4 |] %18
V:3
 x8 | x8 | x8 | z4 C,4 | D,4 E,2- [E,C]2 | F,4 z4 | x8 | x8 |[M:2/4] x4 | x4 |[M:4/4] z4 B,2 z2 | %11
 [G,D]4 [G,D]4 | x8 | x8 | x4[K:treble] x4 | x4[K:bass] x4 | x8 |[M:2/4] x4 |] %18
V:4
 x8 | x8 | x8 | x8 | [A,F]4 c2 B2 | x8 | x8 | x8 |[M:2/4] x4 | z2 B,2 |[M:4/4] x8 | x8 | %12
 z4 [GB]2 z2 | x8 | [CF]2- [CFB]2 c2 d2 | z2 C2 [B,EG]4 | x8 |[M:2/4] x4 |] %18

